X:542
T:Back of the Change House
T:Cl an Taigh Osda
S:Finn Moore via Niall Anderson, Glasgow,
Z:Nigel Gatherer
M:4/4
L:1/8
K:D
B | AAAf edBd | AAAB dedB | AAAf edBg |1 faef dedB :|
                                       2 faef dd d  |
g | fedf edBg | fefg adag | fedf edBg |1 fdaf edBg :|
                                       2 faef d2 d |]
<end>
<start>
